packages/katcn/src/icons/svg/connection-solid.svg

<svg width="24" height="25" viewBox="0 0 24 25" fill="none" xmlns="http://www.w3.org/2000/svg">
<path d="M3.8 23.312C2.3 23.312 1 22.012 1 20.512V16.912C1 15.312 2.3 14.112 3.8 14.112C5.4 14.112 6.6 15.412 6.6 16.912V20.512C6.6 22.012 5.4 23.312 3.8 23.312Z" fill="black"/>
<path d="M12 23.312C10.4 23.312 9.20001 22.012 9.20001 20.512V11.412C9.20001 9.81201 10.5 8.61201 12 8.61201C13.6 8.61201 14.8 9.91201 14.8 11.412V20.512C14.8 22.012 13.6 23.312 12 23.312Z" fill="black"/>
<path d="M20.2 23.312C18.6 23.312 17.4 22.012 17.4 20.512V4.11201C17.4 2.51201 18.7 1.31201 20.2 1.31201C21.7 1.31201 23 2.61201 23 4.11201V20.512C23 22.012 21.7 23.312 20.2 23.312Z" fill="black"/>
</svg>

<svg xmlns="http://www.w3.org/2000/svg" fill="none" viewBox="0 0 24 25"><path fill="#000" d="M3.8 23.312c-1.5 0-2.8-1.3-2.8-2.8v-3.6c0-1.6 1.3-2.8 2.8-2.8 1.6 0 2.8 1.3 2.8 2.8v3.6c0 1.5-1.2 2.8-2.8 2.8m8.2 0c-1.6 0-2.8-1.3-2.8-2.8v-9.1c0-1.6 1.3-2.8 2.8-2.8 1.6 0 2.8 1.3 2.8 2.8v9.1c0 1.5-1.2 2.8-2.8 2.8m8.2 0c-1.6 0-2.8-1.3-2.8-2.8v-16.4c0-1.6 1.3-2.8 2.8-2.8s2.8 1.3 2.8 2.8v16.4c0 1.5-1.3 2.8-2.8 2.8"/></svg>
